X:1
T:Title
%%score { ( 1 3 ) | ( 2 4 ) }
L:1/8
Q:1/4=100
M:4/4
K:A
V:1 treble nm="Grand Piano"
V:3 treble 
V:2 bass 
V:4 bass 
V:1
 [CE]2 [CA]2 [Ec]2 [DB]2 | [CA]>[CA] [DG]>[DF] [CE]4 | E2 D2 G2 B2 | [DB]>[CA] [CA]>[B,G] [CA]4 | %4
w: Carrie~B.~Adams * * *||||
 [CE]2 [CA]2 [Ec]2 [DB]2 | [CA]>[CA] [DG]>[DF] [CE]4 | F2 A2 E2 [Ec]2 |[M:7/8] c>BA>G [CA]3 | %8
w: ||||
[M:1/4] E>A |[M:4/4] c6 z2 | c4 c2 z2 | B6 z2 | A4[K:bass][K:treble] A2 z2 | c6 z2 | e4 z4 | %15
w: |||||||
 c4 B4 |[M:7/8] A-A-A- A- A3 |] %17
w: ||
V:2
 [A,,A,]2 [A,,E,]2 [A,,A,]2 [A,,A,]2 | [A,,A,]>[A,,E,] [A,,F,]>[A,,G,] [A,,A,]4 | %2
 [E,G,B,]2 [E,G,B,]2 [E,B,D]2 [E,G,D]2 | [A,,A,]>[A,,E,] [A,,E,]>[A,,E,] [A,,E,]4 | %4
 [A,,A,]2 [A,,E,]2 [A,,A,]2 [A,,A,]2 | [A,,A,]>[A,,E,] [A,,F,]>[A,,G,] [A,,A,]4 | %6
 [D,A,D]2 [D,F,D]2 [C,A,]2 [A,,A,]2 |[M:7/8] [E,A,E]>[E,DE][E,CE]>[E,B,D] [A,,A,]3 |[M:1/4] z2 | %9
[M:4/4] z2 [A,,A,]>[A,,A,] z z/ F/ [A,,A,]2 | [A,,A,]>[A,,A,] [A,,A,]>[A,,A,] [A,,A,]>[A,,A,] z2 | %11
 z2 [E,G,]>[E,G,] z z/ C/ D>E | A,,>A,, A,,>A,, [A,,E,]>[A,,E,] z2 | %13
 z2 [A,,A,]>[A,,A,] z z/ C/ [A,,A,]2 | [D,A,]>[D,A,] [D,A,]>[D,A,] [D,A,]2[K:treble] F>F | %15
 E->[E,E-] [E,E]>[E,A,C] D->[E,D-] [E,D]>[E,B,D] | %16
[M:7/8] [A,,A,]>[A,,E,][A,,F,]>[A,,A,] [A,,E,]3 |] %17
V:3
 x8 | x8 | x8 | x8 | x8 | x8 | x8 |[M:7/8] x7 |[M:1/4] x2 |[M:4/4] z2 E>E E>d [FA]>[^EB] | %10
 E>E E>E E>E E>G | z2 D>D D>A B>c | [A,C]>[K:bass][E,C] [E,C]>[F,D][K:treble] C>C E>A | %13
 z2 E>E E>A [Ec]>[=Ge] | F>F F>F [Fd]2 c>B | z z/ A,/ A,>A z z/ G,/ G,>G |[M:7/8] C>CD>F C3 |] %17
V:4
 x8 | x8 | x8 | x8 | x8 | x8 | x8 |[M:7/8] x7 |[M:1/4] x2 |[M:4/4] z4 [A,,A,]2 z2 | x8 | %11
 z4 [E,G,]2 [E,G,]2 | x8 | z4 [A,,A,]2 z2 | x6[K:treble] x2 | [E,A,]2 z2 [E,G,]2 z2 |[M:7/8] x7 |] %17

